X: 614
T: Huma kaihua
%%abc-version 2.0
%%abcx-abcm2ps-target-version 5.9.1 (29 Sep 2008)
%%abc-creator hum2abc beta
%%abcx-conversion-date 2013/10/02 07:52:30
%%abc-edited-by Helmut Schaffrath
%%humdrum-veritas 1843548071
%%humdrum-veritas-data 3076525792
%%continueall 1
%%barnumbers 0
L: 1/8
M: 2/4
K: G
A ED2 [I:setbarnb 1]| 
F G A d | 
A G F E | 
D4 | 
A ED2 | 
F G A d | 
A4 | 
A ED2 | 
D2G A | 
d2A/ G/ A/ d/ | 
A G F E | 
D3D | 
G A F E | 
D4 |]  



